X:220
T: Autumn Leaves
T: Duilli\'ur an Fh\'omhair
S: B.Breathnach:"Ceol Rince na hEireann" IV/132
Z: B.Black
L: 1/8
M: 4/4
R: reel
K: Edor
E2 BA FGAF|E2 BA FEDF|E2 BA FGAB|defe dBAF|
E2 BA FGAF|E2 BA FEDF|E2 BA FGAB|defe dBAd ||
Beec defd|Beec dB A2|Beec defe|dBAF FE E2|
Beec defd|Beec d3e|f2 fe dfec|dBAF FE E2 ||
